img/icon_technical_support.svg

<svg width="35" height="33" viewBox="0 0 35 33" fill="none" xmlns="http://www.w3.org/2000/svg">
<path d="M5.46875 26.4C6.339 26.4 7.17359 26.0523 7.78895 25.4335C8.4043 24.8146 8.75 23.9752 8.75 23.1V14.3C8.75018 13.4361 8.4135 12.6066 7.81226 11.9896C7.21103 11.3726 6.3932 11.0173 5.53438 11C5.80333 8.58071 6.94916 6.34589 8.75293 4.72255C10.5567 3.09921 12.892 2.20117 15.3125 2.20001H19.6875C22.108 2.20117 24.4433 3.09921 26.2471 4.72255C28.0508 6.34589 29.1967 8.58071 29.4656 11C28.6068 11.0173 27.789 11.3726 27.1877 11.9896C26.5865 12.6066 26.2498 13.4361 26.25 14.3V23.1C26.2485 23.942 26.567 24.7527 27.1404 25.3661C27.7138 25.9796 28.4987 26.3495 29.3344 26.4C29.1087 27.0419 28.6912 27.5979 28.139 27.9918C27.5868 28.3856 26.927 28.5981 26.25 28.6H21.6781C21.4201 27.8661 20.9124 27.2475 20.2448 26.8536C19.5772 26.4597 18.7926 26.3159 18.0297 26.4475C17.2668 26.5792 16.5747 26.9778 16.0758 27.573C15.5769 28.1681 15.3033 28.9215 15.3033 29.7C15.3033 30.4785 15.5769 31.2318 16.0758 31.827C16.5747 32.4222 17.2668 32.8208 18.0297 32.9525C18.7926 33.0841 19.5772 32.9403 20.2448 32.5464C20.9124 32.1525 21.4201 31.5339 21.6781 30.8H26.25C27.5806 30.7939 28.8633 30.3002 29.8579 29.4113C30.8526 28.5223 31.4908 27.2992 31.6531 25.971C32.6453 25.5509 33.4922 24.8456 34.0876 23.9435C34.683 23.0415 35.0004 21.9827 35 20.9V16.5C35.0016 15.4284 34.6919 14.3798 34.109 13.4828C33.526 12.5858 32.6953 11.8796 31.7187 11.451C31.5534 8.35569 30.2132 5.44223 27.9746 3.31156C25.736 1.1809 22.7697 -0.0044493 19.6875 1.25507e-05H15.3125C12.2303 -0.0044493 9.26402 1.1809 7.02539 3.31156C4.78676 5.44223 3.44657 8.35569 3.28126 11.451C2.30473 11.8796 1.47397 12.5858 0.891045 13.4828C0.308121 14.3798 -0.00157554 15.4284 6.02747e-06 16.5V20.9C6.02747e-06 22.3587 0.576176 23.7576 1.60177 24.7891C2.62735 25.8205 4.01835 26.4 5.46875 26.4ZM18.5938 30.8C18.3774 30.8 18.166 30.7355 17.9861 30.6146C17.8062 30.4937 17.666 30.3219 17.5833 30.1209C17.5005 29.9199 17.4788 29.6988 17.521 29.4854C17.5632 29.272 17.6674 29.076 17.8204 28.9222C17.9733 28.7683 18.1682 28.6636 18.3804 28.6211C18.5925 28.5787 18.8125 28.6005 19.0123 28.6837C19.2122 28.767 19.383 28.908 19.5032 29.0889C19.6234 29.2698 19.6875 29.4824 19.6875 29.7C19.6875 29.9917 19.5723 30.2715 19.3671 30.4778C19.162 30.6841 18.8838 30.8 18.5938 30.8ZM32.8125 16.5V20.9C32.8125 21.7752 32.4668 22.6146 31.8514 23.2335C31.2361 23.8523 30.4015 24.2 29.5312 24.2C29.2412 24.2 28.963 24.0841 28.7578 23.8778C28.5527 23.6715 28.4375 23.3917 28.4375 23.1V14.3C28.4375 14.0083 28.5527 13.7285 28.7578 13.5222C28.963 13.3159 29.2412 13.2 29.5312 13.2C30.4015 13.2 31.2361 13.5477 31.8514 14.1666C32.4668 14.7854 32.8125 15.6248 32.8125 16.5ZM2.18751 16.5C2.18751 15.6248 2.53321 14.7854 3.14856 14.1666C3.76391 13.5477 4.59851 13.2 5.46875 13.2C5.75883 13.2 6.03703 13.3159 6.24215 13.5222C6.44727 13.7285 6.5625 14.0083 6.5625 14.3V23.1C6.5625 23.3917 6.44727 23.6715 6.24215 23.8778C6.03703 24.0841 5.75883 24.2 5.46875 24.2C4.59851 24.2 3.76391 23.8523 3.14856 23.2335C2.53321 22.6146 2.18751 21.7752 2.18751 20.9V16.5Z" fill="white"/>
</svg>

<svg width="35" height="33" fill="none" xmlns="http://www.w3.org/2000/svg"><path d="M5.469 26.4c.87 0 1.705-.348 2.32-.966A3.31 3.31 0 008.75 23.1v-8.8a3.31 3.31 0 00-.938-2.31A3.273 3.273 0 005.534 11a9.919 9.919 0 013.219-6.277 9.812 9.812 0 016.56-2.523h4.374c2.421.001 4.756.9 6.56 2.523A9.919 9.919 0 0129.466 11a3.273 3.273 0 00-2.278.99 3.31 3.31 0 00-.938 2.31v8.8a3.31 3.31 0 00.89 2.266 3.274 3.274 0 002.194 1.034 3.299 3.299 0 01-1.195 1.592 3.269 3.269 0 01-1.889.608h-4.572a3.296 3.296 0 00-1.433-1.746 3.266 3.266 0 00-4.17.719 3.311 3.311 0 000 4.254 3.266 3.266 0 004.169.72 3.296 3.296 0 001.434-1.747h4.572a5.451 5.451 0 003.608-1.389 5.51 5.51 0 001.795-3.44 5.476 5.476 0 002.435-2.027A5.529 5.529 0 0035 20.9v-4.4a5.523 5.523 0 00-.891-3.017 5.477 5.477 0 00-2.39-2.032 12.13 12.13 0 00-3.744-8.14A11.994 11.994 0 0019.687 0h-4.375a11.994 11.994 0 00-8.287 3.312 12.13 12.13 0 00-3.744 8.139 5.477 5.477 0 00-2.39 2.032A5.523 5.523 0 000 16.5v4.4c0 1.459.576 2.858 1.602 3.89a5.453 5.453 0 003.867 1.61zm13.125 4.4a1.09 1.09 0 01-1.01-.68 1.106 1.106 0 01.236-1.198 1.091 1.091 0 011.867.778c0 .292-.115.572-.32.778a1.09 1.09 0 01-.773.322zm14.218-14.3v4.4a3.31 3.31 0 01-.96 2.334 3.272 3.272 0 01-2.32.966 1.09 1.09 0 01-.774-.322 1.103 1.103 0 01-.32-.778v-8.8c0-.292.115-.572.32-.778a1.09 1.09 0 01.773-.322c.87 0 1.705.348 2.32.967a3.31 3.31 0 01.962 2.333zm-30.624 0c0-.875.345-1.715.96-2.333a3.272 3.272 0 012.32-.967 1.093 1.093 0 011.094 1.1v8.8c0 .292-.115.572-.32.778a1.09 1.09 0 01-.773.322c-.87 0-1.705-.348-2.32-.966a3.31 3.31 0 01-.961-2.334v-4.4z" fill="#fff"/></svg>
